X: 41
T:Humours of Glendart
R:jig
Z:added by Alf 
M:6/8
L:1/8
Q:3/8=120
K:D
A | BAF AFD | FEF DFA | BAF AFD | FEE EFA | BAF AFD | FEF DFA |
dcB AFE | FDD D2 :| A | def d2B | ABA AFA | def def |
efe efB | def d2B | ABA AFA | dcB AFE | FDD D2 :|
